X:11
T:BAL DES HOLLANDAIS
Z: Yves BELOTTEAU
M:6/8
L:1/8
Q:1/4=75
K:G
|:D/2D/2D/2G3/2 E/2F/2G/2A3/2|GB/2GB/2 AF/2ED/2|
 D/2D/2D/2G3/2 E/2F/2G/2A3/2|GB/2GB/2 AF/2G3/2:|
AA/2G3/2 AA/2Gd/2|dd/2cB/2 A3/2G3/2|
AA/2G3/2 AA/2Gd/2|dd/2cB/2 A/2B/2A/2G3/2|
